X: 25682
T: Martin Wynne's
R: reel
M: 4/4
K: Gmajor
|:dged B2Ac|BGdG EAAc|BGdB cdeg|gfga gfeB|
dged B2Ac|BGdG EAAc|BGdB cdeg|1 fgaf g2fe:|2 fgaf g2ba||
|:gfga gfeB|d2ed BGGB|gfga gfeB|dega bgaf|
gbaf gfeB|d2ed BGGB|gfga gfed|1 fgaf g2ba:|2 fgaf g2fe||

